X:2477
T:The Cows are a-milking
O:ireland
B:Joyce, P. W.; "Old Irish Folk Music and Songs"
R:reel
A:Kilkenny
L:1/8
M:4/4
K:G
G3 B c2 BA|GBdB e2 dB|G3 B cBcd|eA A2 eAA2|
DGBG c2 BA|GBdg e2 dB|G3 B A2 GA|B2 Ac BG G2:|
|:gfgd e2 dB|dggd e2dB|G3 B cBcd|eA cA eA cA|
g2 gd e2 dB|dggd eBdB|GFGB AGAc|B2 Ac BG G2:|
